public/assets/img/time.svg

<svg height="42" viewBox="0 0 120 42" width="120" xmlns="http://www.w3.org/2000/svg"><g fill="none" fill-rule="evenodd"><path d="m1 1h118v40h-118z" stroke="#000" stroke-width="2"/><path d="m18.459 15.12c2.754 0 3.927 2.924 3.927 5.559 0 2.737-1.173 5.559-3.927 5.559s-3.927-2.822-3.927-5.559c0-2.635 1.173-5.559 3.927-5.559zm-1.445 5.559c0 1.513.153 4.777 1.445 4.777s1.445-3.264 1.445-4.777-.153-4.777-1.445-4.777-1.445 3.264-1.445 4.777zm10.574 3.128v-.476c0-.442-.034-.493-.391-.493h-3.927c-.204-.085-.255-.323-.187-.544l5.525-7.888c.187-.272.323-.408.561-.408h.493c.289 0 .425.119.17.459l-5.1 7.072c-.153.221-.17.357.374.357h2.091c.357 0 .391-.051.391-.493v-2.38c0-.391.102-.51.374-.612.442-.187 1.36-.527 1.649-.527.153 0 .221.119.221.289v3.23c0 .442.034.493.391.493h1.122c.255.136.255.799 0 .952h-1.122c-.357 0-.391.051-.391.493v.476c0 1.394.102 1.547.85 1.615l.357.034c.153.102.136.544-.034.595-.612-.034-1.513-.051-2.295-.051-1.122 0-2.142.017-2.72.051-.17-.051-.187-.493-.034-.595l.697-.051c.833-.068.935-.204.935-1.598zm6.341 2.431c-.68 0-1.377-.544-1.377-1.377 0-.799.612-1.411 1.377-1.411.816 0 1.377.68 1.377 1.411 0 .782-.561 1.377-1.377 1.377zm0-4.148c-.68 0-1.377-.51-1.377-1.326 0-.833.612-1.462 1.377-1.462.816 0 1.377.68 1.377 1.462 0 .765-.561 1.326-1.377 1.326zm5.015-6.664 4.505-.544c.136 0 .187.085.187.204-.153.646-.51 1.343-.935 1.751l-3.842.425c-.238.034-.323.204-.391.493l-.102.391c-.102.391.119.459.459.493.901.102 2.482.34 3.468.833.952.476 1.802 1.428 1.802 2.839 0 1.768-1.037 2.907-2.448 3.672s-3.179 1.088-4.607 1.122c-.255-.119-.323-.646-.102-.799 1.224-.051 2.601-.289 3.4-.765 1.003-.595 1.581-1.377 1.581-2.295 0-2.431-2.55-2.686-4.25-2.822-.544-.034-.612-.187-.51-.578l1.02-3.91c.119-.442.221-.442.765-.51zm11.645 1.904v6.477c0 1.36.102 1.53.935 1.598l.697.051c.153.102.136.544-.034.595-.612-.034-1.632-.051-2.686-.051-1.122 0-2.142.017-2.754.051-.17-.051-.187-.493-.034-.595l.697-.051c.833-.068.935-.238.935-1.598v-5.491c0-1.122-.068-1.377-.816-1.479l-.782-.102c-.153-.085-.17-.493-.034-.595.697-.102 1.496-.289 2.176-.476.748-.221 1.394-.544 1.513-.544.085 0 .204.051.238.187-.034.391-.051 1.173-.051 2.023zm5.44 8.908c-.68 0-1.377-.544-1.377-1.377 0-.799.612-1.411 1.377-1.411.816 0 1.377.68 1.377 1.411 0 .782-.561 1.377-1.377 1.377zm0-4.148c-.68 0-1.377-.51-1.377-1.326 0-.833.612-1.462 1.377-1.462.816 0 1.377.68 1.377 1.462 0 .765-.561 1.326-1.377 1.326zm5.083-6.732h3.264c1.071 0 2.244-.017 2.465-.051.119.034.17.17.153.272-.425.629-.969 1.547-1.683 2.805l-4.896 8.67c-.289.051-.782-.153-.816-.527l4.471-7.769c.374-.663.561-1.054.561-1.343 0-.221-.238-.272-.493-.272h-3.604c-.986 0-1.156.119-1.547.833-.136.153-.51.068-.578-.119.289-.833.51-1.904.663-2.55.561.034.969.051 2.04.051zm10.387-.238c2.754 0 3.927 2.924 3.927 5.559 0 2.737-1.173 5.559-3.927 5.559s-3.927-2.822-3.927-5.559c0-2.635 1.173-5.559 3.927-5.559zm-1.445 5.559c0 1.513.153 4.777 1.445 4.777s1.445-3.264 1.445-4.777-.153-4.777-1.445-4.777-1.445 3.264-1.445 4.777zm11.237 3.349v-7.48c0-.68 0-.867-.34-1.071l-.289-.17c-.119-.102-.119-.408 0-.51.731-.17 1.751-.578 2.601-.952.102 0 .221.034.289.119-.034.697-.051 1.411-.051 2.482v7.582c0 1.19.068 1.326.663 1.394l.289.034c.136.102.136.493-.017.595-.561-.034-1.275-.051-2.04-.051-.731 0-1.445.017-2.04.051-.153-.102-.153-.493-.017-.595l.323-.034c.561-.051.629-.204.629-1.394zm9.758-2.057h-3.264c-.391 0-.425.034-.425.306 0 1.275.816 2.516 2.397 2.516.476 0 1.122-.102 1.581-.884.187-.034.442.102.442.391-.697 1.445-1.955 1.938-2.975 1.938-2.295 0-3.536-1.615-3.536-3.468 0-2.142 1.547-3.808 3.672-3.808 1.768 0 2.72 1.139 2.72 2.448 0 .323-.085.561-.612.561zm-2.771-.748h.629c.238 0 .51-.034.697-.153.085-.051.119-.221.119-.391 0-.561-.323-.935-.901-.935-.714 0-1.326.68-1.326 1.224 0 .238.238.255.782.255zm9.18-1.105h-1.513c-.425 0-.442.017-.442.476v3.434c0 1.224.068 1.36.629 1.411l.561.051c.136.102.136.459-.017.561-.799-.034-1.513-.051-2.312-.051-.765 0-1.479.017-2.006.051-.153-.102-.153-.459-.017-.561l.272-.034c.612-.068.68-.204.68-1.428v-3.434c0-.459-.034-.476-.425-.476h-.629c-.102-.068-.136-.374-.051-.459l.731-.374c.221-.119.374-.221.374-.442 0-.731.119-1.972.476-2.805.493-1.122 1.428-2.193 3.332-2.193.986 0 1.989.51 1.989 1.394 0 .561-.408.918-.986.918-.357 0-.561-.17-.68-.306-.731-.935-1.003-1.122-1.207-1.122-.442 0-.714.493-.714 2.074v1.921c0 .459.017.476.442.476h1.615c.085.051.119.187.119.34 0 .221-.068.476-.221.578zm4.981 0h-1.53c-.221 0-.238.017-.238.391v2.55c0 .952 0 2.006 1.19 2.006.238 0 .51-.119.714-.255.17.051.272.238.238.442-.476.51-1.394.986-2.448.986-1.411 0-1.904-.816-1.904-1.938v-3.791c0-.357-.017-.391-.323-.391h-.527c-.187-.068-.238-.408-.102-.527.527-.187 1.003-.493 1.411-.765.306-.221.731-.578 1.258-1.326.119-.068.425-.051.51.085v1.275c0 .323.017.34.323.34h1.513c.085.068.136.17.136.323 0 .187-.051.493-.221.595zm2.363-5.1c.884 0 1.36.153 1.36.731 0 .272-.102.799-.272 1.989l-.714 4.777c-.204.136-.544.136-.748 0l-.714-4.777c-.17-1.19-.272-1.717-.272-1.989 0-.578.476-.731 1.36-.731zm0 11.22c-.68 0-1.377-.544-1.377-1.377 0-.799.612-1.411 1.377-1.411.816 0 1.377.68 1.377 1.411 0 .782-.561 1.377-1.377 1.377z" fill="#000"/></g></svg>

<?xml version="1.0" encoding="UTF-8"?>
<svg width="120px" height="42px" viewBox="0 0 120 42" version="1.1" xmlns="http://www.w3.org/2000/svg" xmlns:xlink="http://www.w3.org/1999/xlink">
    <!-- Generator: Sketch 49.2 (51160) - http://www.bohemiancoding.com/sketch -->
    <title>time</title>
    <desc>Created with Sketch.</desc>
    <defs></defs>
    <g id="Game-UI" stroke="none" stroke-width="1" fill="none" fill-rule="evenodd">
        <g id="time">
            <rect id="Combined-Shape" stroke="#000000" stroke-width="2" x="1" y="1" width="118" height="40"></rect>
            <path d="M18.459,15.12 C21.213,15.12 22.386,18.044 22.386,20.679 C22.386,23.416 21.213,26.238 18.459,26.238 C15.705,26.238 14.532,23.416 14.532,20.679 C14.532,18.044 15.705,15.12 18.459,15.12 Z M17.014,20.679 C17.014,22.192 17.167,25.456 18.459,25.456 C19.751,25.456 19.904,22.192 19.904,20.679 C19.904,19.166 19.751,15.902 18.459,15.902 C17.167,15.902 17.014,19.166 17.014,20.679 Z M27.588,23.807 L27.588,23.331 C27.588,22.889 27.554,22.838 27.197,22.838 L23.27,22.838 C23.066,22.753 23.015,22.515 23.083,22.294 L28.608,14.406 C28.795,14.134 28.931,13.998 29.169,13.998 L29.662,13.998 C29.951,13.998 30.087,14.117 29.832,14.457 L24.732,21.529 C24.579,21.75 24.562,21.886 25.106,21.886 L27.197,21.886 C27.554,21.886 27.588,21.835 27.588,21.393 L27.588,19.013 C27.588,18.622 27.69,18.503 27.962,18.401 C28.404,18.214 29.322,17.874 29.611,17.874 C29.764,17.874 29.832,17.993 29.832,18.163 L29.832,21.393 C29.832,21.835 29.866,21.886 30.223,21.886 L31.345,21.886 C31.6,22.022 31.6,22.685 31.345,22.838 L30.223,22.838 C29.866,22.838 29.832,22.889 29.832,23.331 L29.832,23.807 C29.832,25.201 29.934,25.354 30.682,25.422 L31.039,25.456 C31.192,25.558 31.175,26 31.005,26.051 C30.393,26.017 29.492,26 28.71,26 C27.588,26 26.568,26.017 25.99,26.051 C25.82,26 25.803,25.558 25.956,25.456 L26.653,25.405 C27.486,25.337 27.588,25.201 27.588,23.807 Z M33.929,26.238 C33.249,26.238 32.552,25.694 32.552,24.861 C32.552,24.062 33.164,23.45 33.929,23.45 C34.745,23.45 35.306,24.13 35.306,24.861 C35.306,25.643 34.745,26.238 33.929,26.238 Z M33.929,22.09 C33.249,22.09 32.552,21.58 32.552,20.764 C32.552,19.931 33.164,19.302 33.929,19.302 C34.745,19.302 35.306,19.982 35.306,20.764 C35.306,21.529 34.745,22.09 33.929,22.09 Z M38.944,15.426 L43.449,14.882 C43.585,14.882 43.636,14.967 43.636,15.086 C43.483,15.732 43.126,16.429 42.701,16.837 L38.859,17.262 C38.621,17.296 38.536,17.466 38.468,17.755 L38.366,18.146 C38.264,18.537 38.485,18.605 38.825,18.639 C39.726,18.741 41.307,18.979 42.293,19.472 C43.245,19.948 44.095,20.9 44.095,22.311 C44.095,24.079 43.058,25.218 41.647,25.983 C40.236,26.748 38.468,27.071 37.04,27.105 C36.785,26.986 36.717,26.459 36.938,26.306 C38.162,26.255 39.539,26.017 40.338,25.541 C41.341,24.946 41.919,24.164 41.919,23.246 C41.919,20.815 39.369,20.56 37.669,20.424 C37.125,20.39 37.057,20.237 37.159,19.846 L38.179,15.936 C38.298,15.494 38.4,15.494 38.944,15.426 Z M50.589,17.33 L50.589,23.807 C50.589,25.167 50.691,25.337 51.524,25.405 L52.221,25.456 C52.374,25.558 52.357,26 52.187,26.051 C51.575,26.017 50.555,26 49.501,26 C48.379,26 47.359,26.017 46.747,26.051 C46.577,26 46.56,25.558 46.713,25.456 L47.41,25.405 C48.243,25.337 48.345,25.167 48.345,23.807 L48.345,18.316 C48.345,17.194 48.277,16.939 47.529,16.837 L46.747,16.735 C46.594,16.65 46.577,16.242 46.713,16.14 C47.41,16.038 48.209,15.851 48.889,15.664 C49.637,15.443 50.283,15.12 50.402,15.12 C50.487,15.12 50.606,15.171 50.64,15.307 C50.606,15.698 50.589,16.48 50.589,17.33 Z M56.029,26.238 C55.349,26.238 54.652,25.694 54.652,24.861 C54.652,24.062 55.264,23.45 56.029,23.45 C56.845,23.45 57.406,24.13 57.406,24.861 C57.406,25.643 56.845,26.238 56.029,26.238 Z M56.029,22.09 C55.349,22.09 54.652,21.58 54.652,20.764 C54.652,19.931 55.264,19.302 56.029,19.302 C56.845,19.302 57.406,19.982 57.406,20.764 C57.406,21.529 56.845,22.09 56.029,22.09 Z M61.112,15.358 L64.376,15.358 C65.447,15.358 66.62,15.341 66.841,15.307 C66.96,15.341 67.011,15.477 66.994,15.579 C66.569,16.208 66.025,17.126 65.311,18.384 L60.415,27.054 C60.126,27.105 59.633,26.901 59.599,26.527 L64.07,18.758 C64.444,18.095 64.631,17.704 64.631,17.415 C64.631,17.194 64.393,17.143 64.138,17.143 L60.534,17.143 C59.548,17.143 59.378,17.262 58.987,17.976 C58.851,18.129 58.477,18.044 58.409,17.857 C58.698,17.024 58.919,15.953 59.072,15.307 C59.633,15.341 60.041,15.358 61.112,15.358 Z M71.499,15.12 C74.253,15.12 75.426,18.044 75.426,20.679 C75.426,23.416 74.253,26.238 71.499,26.238 C68.745,26.238 67.572,23.416 67.572,20.679 C67.572,18.044 68.745,15.12 71.499,15.12 Z M70.054,20.679 C70.054,22.192 70.207,25.456 71.499,25.456 C72.791,25.456 72.944,22.192 72.944,20.679 C72.944,19.166 72.791,15.902 71.499,15.902 C70.207,15.902 70.054,19.166 70.054,20.679 Z M81.291,24.028 L81.291,16.548 C81.291,15.868 81.291,15.681 80.951,15.477 L80.662,15.307 C80.543,15.205 80.543,14.899 80.662,14.797 C81.393,14.627 82.413,14.219 83.263,13.845 C83.365,13.845 83.484,13.879 83.552,13.964 C83.518,14.661 83.501,15.375 83.501,16.446 L83.501,24.028 C83.501,25.218 83.569,25.354 84.164,25.422 L84.453,25.456 C84.589,25.558 84.589,25.949 84.436,26.051 C83.875,26.017 83.161,26 82.396,26 C81.665,26 80.951,26.017 80.356,26.051 C80.203,25.949 80.203,25.558 80.339,25.456 L80.662,25.422 C81.223,25.371 81.291,25.218 81.291,24.028 Z M91.049,21.971 L87.785,21.971 C87.394,21.971 87.36,22.005 87.36,22.277 C87.36,23.552 88.176,24.793 89.757,24.793 C90.233,24.793 90.879,24.691 91.338,23.909 C91.525,23.875 91.78,24.011 91.78,24.3 C91.083,25.745 89.825,26.238 88.805,26.238 C86.51,26.238 85.269,24.623 85.269,22.77 C85.269,20.628 86.816,18.962 88.941,18.962 C90.709,18.962 91.661,20.101 91.661,21.41 C91.661,21.733 91.576,21.971 91.049,21.971 Z M88.278,21.223 L88.907,21.223 C89.145,21.223 89.417,21.189 89.604,21.07 C89.689,21.019 89.723,20.849 89.723,20.679 C89.723,20.118 89.4,19.744 88.822,19.744 C88.108,19.744 87.496,20.424 87.496,20.968 C87.496,21.206 87.734,21.223 88.278,21.223 Z M97.458,20.118 L95.945,20.118 C95.52,20.118 95.503,20.135 95.503,20.594 L95.503,24.028 C95.503,25.252 95.571,25.388 96.132,25.439 L96.693,25.49 C96.829,25.592 96.829,25.949 96.676,26.051 C95.877,26.017 95.163,26 94.364,26 C93.599,26 92.885,26.017 92.358,26.051 C92.205,25.949 92.205,25.592 92.341,25.49 L92.613,25.456 C93.225,25.388 93.293,25.252 93.293,24.028 L93.293,20.594 C93.293,20.135 93.259,20.118 92.868,20.118 L92.239,20.118 C92.137,20.05 92.103,19.744 92.188,19.659 L92.919,19.285 C93.14,19.166 93.293,19.064 93.293,18.843 C93.293,18.112 93.412,16.871 93.769,16.038 C94.262,14.916 95.197,13.845 97.101,13.845 C98.087,13.845 99.09,14.355 99.09,15.239 C99.09,15.8 98.682,16.157 98.104,16.157 C97.747,16.157 97.543,15.987 97.424,15.851 C96.693,14.916 96.421,14.729 96.217,14.729 C95.775,14.729 95.503,15.222 95.503,16.803 L95.503,18.724 C95.503,19.183 95.52,19.2 95.945,19.2 L97.56,19.2 C97.645,19.251 97.679,19.387 97.679,19.54 C97.679,19.761 97.611,20.016 97.458,20.118 Z M102.439,20.118 L100.909,20.118 C100.688,20.118 100.671,20.135 100.671,20.509 L100.671,23.059 C100.671,24.011 100.671,25.065 101.861,25.065 C102.099,25.065 102.371,24.946 102.575,24.81 C102.745,24.861 102.847,25.048 102.813,25.252 C102.337,25.762 101.419,26.238 100.365,26.238 C98.954,26.238 98.461,25.422 98.461,24.3 L98.461,20.509 C98.461,20.152 98.444,20.118 98.138,20.118 L97.611,20.118 C97.424,20.05 97.373,19.71 97.509,19.591 C98.036,19.404 98.512,19.098 98.92,18.826 C99.226,18.605 99.651,18.248 100.178,17.5 C100.297,17.432 100.603,17.449 100.688,17.585 L100.688,18.86 C100.688,19.183 100.705,19.2 101.011,19.2 L102.524,19.2 C102.609,19.268 102.66,19.37 102.66,19.523 C102.66,19.71 102.609,20.016 102.439,20.118 Z M104.802,15.018 C105.686,15.018 106.162,15.171 106.162,15.749 C106.162,16.021 106.06,16.548 105.89,17.738 L105.176,22.515 C104.972,22.651 104.632,22.651 104.428,22.515 L103.714,17.738 C103.544,16.548 103.442,16.021 103.442,15.749 C103.442,15.171 103.918,15.018 104.802,15.018 Z M104.802,26.238 C104.122,26.238 103.425,25.694 103.425,24.861 C103.425,24.062 104.037,23.45 104.802,23.45 C105.618,23.45 106.179,24.13 106.179,24.861 C106.179,25.643 105.618,26.238 104.802,26.238 Z" id="04:51:70-left!" fill="#000000"></path>
        </g>
    </g>
</svg>
